X: 26
T: Old Rosin, The Beau / Lincoln and Liberty
N: a/k/a with lyrics as the "Old Settler's Song" or "Acres of Clams" %% X:3 WJ 2012
M: 3/4
L: 1/8
K: G
D2 |\
"G"G2 G2 G2 | B2 A2 G2 | B2 d4- | "C"d4 e2 |\
"G"d2 B2 A2 | G2 A2 B2 | "Em"E6- | E4 D2 |\
"G"G2 G2 G2 | B2 A2 G2 | B2 d4- | "C"d4 e2 "^I"|\
"G"d2 B2 G2 | "D7"A2 B2 A2 | "G"G6- | G4 ||
d2 |\
"G"d2 B2 d2 | d2 e2 f2 | "C"g4 e2 | g4 e2 |\
"G"d2 B2 A2 | G2 A2 B2 | "Em"E6- | E4 DD |\
"G"G2 G2 G2 | B2 A2 G2 | B2 d4- | "C"d4 ee "^I"|\
"G"d2 B2 G2 | "D7"A2 B2 A2 | "G"G6- | G2 z2 |]


